councils/sc.svg

<svg width="81" height="80" viewBox="0 0 81 80" fill="none" xmlns="http://www.w3.org/2000/svg">
    <path
        d="M35.6697 10.5334C35.6184 10.4578 35.5486 10.3966 35.4668 10.3557C35.3851 10.3149 35.2943 10.2957 35.203 10.3H31.503V7.7667H35.403C35.8871 7.77077 36.3645 7.88022 36.802 8.08746C37.2395 8.29469 37.6266 8.59472 37.9364 8.9667L38.8697 10.1L37.0364 12.3L35.6697 10.5334ZM42.3364 8.83337C42.6456 8.47172 43.0288 8.18049 43.46 7.97926C43.8912 7.77802 44.3605 7.67145 44.8364 7.6667H48.6697V10.1H45.0697C44.9835 10.0983 44.8983 10.1188 44.8223 10.1597C44.7464 10.2006 44.6823 10.2604 44.6364 10.3334L41.9364 13.6667L44.6364 17C44.6911 17.0612 44.7577 17.1106 44.8323 17.145C44.9068 17.1794 44.9876 17.1981 45.0697 17.2H48.7697V20H44.8697C44.3913 19.9912 43.9204 19.8794 43.489 19.6723C43.0576 19.4653 42.6758 19.1678 42.3697 18.8L40.1364 16L37.9364 18.7C37.6266 19.072 37.2395 19.372 36.802 19.5793C36.3645 19.7865 35.8871 19.896 35.403 19.9H31.503V17.2667H35.203C35.3789 17.2642 35.5466 17.1923 35.6697 17.0667L38.2697 13.7334L42.3364 8.83337Z"
        fill="white" />
    <path fill-rule="evenodd" clip-rule="evenodd"
        d="M57.6376 24.0815C56.3048 21.3748 54.3601 19.0157 51.9576 17.1909L54.9818 13.2092C58.0025 15.5035 60.4476 18.4696 62.1233 21.8726C63.7978 25.2732 64.6582 29.0168 64.6364 32.8072C64.6364 33.368 64.6362 40.8377 64.6113 48.2959C64.5988 52.041 64.5801 55.7882 64.5519 58.6574C64.5378 60.0908 64.5213 61.3131 64.5018 62.2092C64.4921 62.6556 64.4814 63.0333 64.4694 63.3204C64.4634 63.4625 64.4565 63.5977 64.4481 63.715L64.4474 63.7242C64.4426 63.7922 64.4267 64.0179 64.3768 64.2424L64.1692 65.1768L57.4355 69.9919L57.4239 70.0003L47.4364 77.2288V51.4762L53.603 48.1429V39.5311L45.9697 43.4586V56.7034L43.8591 57.0362C41.3925 57.4251 38.8802 57.4251 36.4136 57.0362L34.303 56.7034V43.4512L26.803 39.5512V48.1429L32.9697 51.4762V77.1669L22.8583 70.007L22.8489 70.0003L15.8364 64.9857V63.7C15.8364 63.2278 15.7865 55.7436 15.7364 48.2417L15.733 47.7265C15.6844 40.4516 15.6368 33.3131 15.6364 32.8063C15.6173 29.0166 16.4787 25.2743 18.153 21.8744C19.8282 18.4723 22.2713 15.5063 25.2894 13.2103L28.3166 17.1897C25.9153 19.0165 23.9715 21.3764 22.6386 24.0832C21.3057 26.79 20.6202 29.7696 20.6363 32.7867L20.6364 32.8C20.6364 33.2334 20.685 40.5215 20.7344 47.9281L20.7363 48.2083C20.7751 54.0286 20.8141 59.8697 20.8295 62.4094L25.7478 65.9264L25.7572 65.9331L27.9697 67.4998V54.4572L21.803 51.1239V31.3156L39.303 40.4156V52.3095C39.8583 52.334 40.4144 52.334 40.9697 52.3095V40.4081L58.603 31.3356V51.1239L52.4364 54.4572V67.4379L54.5155 65.9331L59.4967 62.3711C59.4988 62.2856 59.5009 62.1954 59.503 62.1006C59.5218 61.2346 59.5381 60.0359 59.5521 58.6083C59.5802 55.7556 59.5989 52.0215 59.6114 48.2792C59.6364 40.7961 59.6364 33.2995 59.6364 32.8V32.7848C59.6547 29.7679 58.9705 26.7881 57.6376 24.0815ZM59.4575 63.3953C59.4575 63.3953 59.4582 63.3854 59.4599 63.3704C59.4584 63.3888 59.4575 63.3953 59.4575 63.3953ZM15.6364 32.8063L15.6364 32.8H18.1364L15.6364 32.8134L15.6364 32.8063Z"
        fill="white" />
    <path fill-rule="evenodd" clip-rule="evenodd"
        d="M35.1621 10.9667L37.017 13.3646L39.7354 10.1025L38.451 8.5429L38.4486 8.54006C38.0769 8.09369 37.6123 7.73364 37.0874 7.48496C36.5624 7.23629 35.9895 7.10494 35.4086 7.10006L30.8364 7.10003V10.9667H35.1621ZM41.8297 8.40007C42.2009 7.96609 42.6606 7.61662 43.1781 7.37513C43.6955 7.13365 44.2587 7.00576 44.8297 7.00007L44.8364 7L49.3364 7.00003V10.7667H45.1433L42.7943 13.6667L45.1163 16.5334H49.4364V20.6667H44.8573C44.2832 20.6561 43.7182 20.5218 43.2005 20.2734C42.6828 20.0249 42.2247 19.6679 41.8573 19.2266L41.8484 19.2158L40.1308 17.0622L38.4487 19.1267C38.0769 19.5731 37.6123 19.9331 37.0874 20.1818C36.5624 20.4304 35.9895 20.5618 35.4086 20.5667L35.403 20.5667L30.8364 20.5667V16.6H35.1882L37.7564 13.3074L41.8297 8.40007ZM35.203 17.2667H31.503V19.9H35.403C35.8871 19.896 36.3645 19.7865 36.802 19.5793C37.2395 19.372 37.6266 19.072 37.9364 18.7L40.1364 16L42.3697 18.8C42.6758 19.1678 43.0576 19.4653 43.489 19.6723C43.9204 19.8794 44.3913 19.9912 44.8697 20H48.7697V17.2H45.0697C44.9876 17.1981 44.9068 17.1794 44.8323 17.145C44.7577 17.1106 44.6911 17.0612 44.6364 17L41.9364 13.6667L44.6364 10.3334C44.6823 10.2604 44.7464 10.2006 44.8223 10.1597C44.8983 10.1188 44.9835 10.0983 45.0697 10.1H48.6697V7.6667H44.8364C44.3605 7.67145 43.8912 7.77802 43.46 7.97926C43.0288 8.18049 42.6456 8.47172 42.3364 8.83337L38.2697 13.7334L35.6697 17.0667C35.5466 17.1923 35.3789 17.2642 35.203 17.2667ZM35.6697 10.5334C35.6184 10.4578 35.5486 10.3966 35.4668 10.3557C35.3851 10.3149 35.2943 10.2957 35.203 10.3H31.503V7.7667H35.403C35.8871 7.77077 36.3645 7.88022 36.802 8.08746C37.2395 8.29469 37.6266 8.59472 37.9364 8.9667L38.8697 10.1L37.0364 12.3L35.6697 10.5334Z"
        fill="white" />
</svg>

<svg width="81" height="80" fill="none" viewBox="0 0 81 80" xmlns="http://www.w3.org/2000/svg">
  <path fill="#fff" d="M35.67 10.533a.53.53 0 0 0-.467-.233h-3.7V7.767h3.9a3.33 3.33 0 0 1 2.533 1.2l.934 1.133-1.834 2.2zm6.666-1.7a3.33 3.33 0 0 1 2.5-1.166h3.834V10.1h-3.6a.5.5 0 0 0-.434.233l-2.7 3.334 2.7 3.333a.6.6 0 0 0 .434.2h3.7V20h-3.9a3.33 3.33 0 0 1-2.5-1.2L40.136 16l-2.2 2.7a3.33 3.33 0 0 1-2.533 1.2h-3.9v-2.633h3.7a.67.67 0 0 0 .467-.2l2.6-3.334z"/>
  <path fill="#fff" fill-rule="evenodd" d="M57.638 24.082a19.4 19.4 0 0 0-5.68-6.891l3.024-3.982a24.43 24.43 0 0 1 9.654 19.598c0 .561 0 8.03-.025 15.489-.012 3.745-.03 7.492-.06 10.361-.013 1.434-.03 2.656-.05 3.552-.009.447-.02.824-.032 1.111-.006.142-.012.278-.02.395l-.002.01c-.004.067-.02.293-.07.517l-.208.935-6.733 4.815-.012.008-9.988 7.229V51.476l6.167-3.333V39.53l-7.633 3.93v13.244l-2.11.333a23.9 23.9 0 0 1-7.446 0l-2.111-.333V43.451l-7.5-3.9v8.592l6.167 3.333v25.69l-10.112-7.159-.01-.007-7.012-5.014V63.7c0-.472-.05-7.956-.1-15.458l-.003-.515c-.049-7.275-.096-14.414-.097-14.92A24.47 24.47 0 0 1 25.29 13.21l3.028 3.98a19.47 19.47 0 0 0-7.68 15.597v.013c0 .433.048 7.722.097 15.128l.002.28c.04 5.82.078 11.662.093 14.201l4.919 3.517.01.007L27.97 67.5V54.457l-6.167-3.333V31.316l17.5 9.1V52.31q.833.036 1.667 0V40.408l17.633-9.072v19.788l-6.167 3.333v12.98l2.08-1.504 4.98-3.562.007-.27c.019-.866.035-2.065.05-3.493.027-2.852.046-6.586.058-10.329.025-7.483.025-14.98.025-15.479v-.015a19.4 19.4 0 0 0-1.998-8.703m1.82 39.313.002-.025zM15.636 32.806V32.8h2.5l-2.5.013z" clip-rule="evenodd"/>
  <path fill="#fff" fill-rule="evenodd" d="m35.162 10.967 1.855 2.398 2.718-3.263-1.284-1.56-.002-.002a4 4 0 0 0-3.04-1.44h-4.573v3.867zM41.83 8.4a4 4 0 0 1 3-1.4h4.506v3.767h-4.193l-2.349 2.9 2.322 2.866h4.32v4.134h-4.579a4 4 0 0 1-3-1.44l-.009-.011-1.717-2.154-1.682 2.065a4 4 0 0 1-3.04 1.44h-4.573V16.6h4.352l2.568-3.293zm-6.627 8.867h-3.7V19.9h3.9a3.33 3.33 0 0 0 2.533-1.2l2.2-2.7 2.234 2.8a3.33 3.33 0 0 0 2.5 1.2h3.9v-2.8h-3.7a.6.6 0 0 1-.434-.2l-2.7-3.333 2.7-3.334a.5.5 0 0 1 .434-.233h3.6V7.667h-3.834a3.33 3.33 0 0 0-2.5 1.166l-4.066 4.9-2.6 3.334a.67.67 0 0 1-.467.2m.467-6.734a.53.53 0 0 0-.467-.233h-3.7V7.767h3.9a3.33 3.33 0 0 1 2.533 1.2l.934 1.133-1.834 2.2z" clip-rule="evenodd"/>
</svg>
